build/images/js-logo.svg

<?xml version="1.0" encoding="UTF-8"?>
<svg xmlns="http://www.w3.org/2000/svg" xmlns:xlink="http://www.w3.org/1999/xlink" width="82pt" height="82pt" viewBox="0 0 82 82" version="1.1">
<g id="surface1">
<rect x="0" y="0" width="82" height="82" style="fill:rgb(96.862745%,87.45098%,11.764706%);fill-opacity:1;stroke:none;"/>
<path style=" stroke:none;fill-rule:nonzero;fill:rgb(0%,0%,0%);fill-opacity:1;" d="M 55.082031 64.0625 C 56.734375 66.757812 58.882812 68.742188 62.683594 68.742188 C 65.878906 68.742188 67.917969 67.144531 67.917969 64.941406 C 67.917969 62.300781 65.820312 61.363281 62.308594 59.824219 L 60.378906 59 C 54.820312 56.628906 51.125 53.664062 51.125 47.390625 C 51.125 41.609375 55.53125 37.210938 62.410156 37.210938 C 67.308594 37.210938 70.832031 38.917969 73.371094 43.378906 L 67.371094 47.234375 C 66.050781 44.863281 64.625 43.929688 62.410156 43.929688 C 60.152344 43.929688 58.722656 45.363281 58.722656 47.234375 C 58.722656 49.542969 60.15625 50.480469 63.460938 51.914062 L 65.386719 52.738281 C 71.933594 55.546875 75.632812 58.40625 75.632812 64.84375 C 75.632812 71.78125 70.179688 75.582031 62.863281 75.582031 C 55.707031 75.582031 51.082031 72.171875 48.820312 67.699219 Z M 27.863281 64.730469 C 29.074219 66.878906 30.175781 68.695312 32.820312 68.695312 C 35.355469 68.695312 36.949219 67.703125 36.949219 63.851562 L 36.949219 37.652344 L 44.65625 37.652344 L 44.65625 63.957031 C 44.65625 71.933594 39.976562 75.566406 33.148438 75.566406 C 26.980469 75.566406 23.40625 72.375 21.589844 68.527344 Z M 27.863281 64.730469 "/>
</g>
</svg>

<svg xmlns="http://www.w3.org/2000/svg" width="82pt" height="82pt" viewBox="0 0 82 82"><path fill="#f7df1e" d="M0 0h82v82H0z"/><path d="M55.082 64.063c1.652 2.695 3.8 4.68 7.602 4.68 3.195 0 5.234-1.598 5.234-3.802 0-2.64-2.098-3.578-5.61-5.117L60.379 59c-5.558-2.371-9.253-5.336-9.253-11.61 0-5.78 4.406-10.18 11.285-10.18 4.899 0 8.422 1.708 10.961 6.169l-6 3.855c-1.32-2.37-2.746-3.304-4.96-3.304-2.259 0-3.688 1.433-3.688 3.304 0 2.309 1.433 3.246 4.738 4.68l1.926.824c6.547 2.809 10.246 5.668 10.246 12.106 0 6.937-5.453 10.738-12.77 10.738-7.156 0-11.781-3.41-14.043-7.883zm-27.219.667c1.211 2.149 2.313 3.965 4.957 3.965 2.535 0 4.13-.992 4.13-4.843v-26.2h7.706v26.305c0 7.977-4.68 11.61-11.508 11.61-6.168 0-9.742-3.192-11.558-7.04zm0 0"/></svg>
